X: 45
T:King's Polka. WI.045
M:2/4
Q:50
S:Wm Irwin, Folio MS, c1850. AGG's Transcription
R:Polka
O:England
A:Lake District
Z:vmp.Chris Partington.2005
K:G
G|BB/c/ dd|ed d2|ed f>e|dc A2|!
BB/c/ dd|ed d2|g/f/e c/B/A|"'etc...'"GBGz|]
